Numix-Light/16/status/indicator-keyboard-Fa.svg

<?xml version="1.0" encoding="UTF-8" standalone="no"?>
<svg
   xmlns:dc="http://purl.org/dc/elements/1.1/"
   xmlns:cc="http://creativecommons.org/ns#"
   xmlns:rdf="http://www.w3.org/1999/02/22-rdf-syntax-ns#"
   xmlns:svg="http://www.w3.org/2000/svg"
   xmlns="http://www.w3.org/2000/svg"
   xmlns:sodipodi="http://sodipodi.sourceforge.net/DTD/sodipodi-0.dtd"
   xmlns:inkscape="http://www.inkscape.org/namespaces/inkscape"
   viewBox="0 0 16 16"
   id="svg2"
   version="1.1"
   inkscape:version="0.91 r13725"
   sodipodi:docname="indicator-keyboard-Fa.svg">
  <metadata
     id="metadata13">
    <rdf:RDF>
      <cc:Work
         rdf:about="">
        <dc:format>image/svg+xml</dc:format>
        <dc:type
           rdf:resource="http://purl.org/dc/dcmitype/StillImage" />
      </cc:Work>
    </rdf:RDF>
  </metadata>
  <defs
     id="defs11" />
  <sodipodi:namedview
     pagecolor="#ffffff"
     bordercolor="#666666"
     borderopacity="1"
     objecttolerance="10"
     gridtolerance="10"
     guidetolerance="10"
     inkscape:pageopacity="0"
     inkscape:pageshadow="2"
     inkscape:window-width="640"
     inkscape:window-height="480"
     id="namedview9"
     showgrid="false"
     inkscape:zoom="14.75"
     inkscape:cx="8"
     inkscape:cy="8"
     inkscape:window-x="65"
     inkscape:window-y="24"
     inkscape:window-maximized="0"
     inkscape:current-layer="svg2" />
  <path
     style="fill:#353535;fill-opacity:1"
     d="M 1.5996094 0 C 0.71320937 2.9605947e-16 0 0.71320937 0 1.5996094 L 0 14.400391 C 2.9605947e-16 15.286791 0.71320937 16 1.5996094 16 L 14.400391 16 C 15.286791 16 16 15.286791 16 14.400391 L 16 1.5996094 C 16 0.71320937 15.286791 0 14.400391 0 L 1.5996094 0 z M 4.3125 4.8320312 L 7.8671875 4.8320312 L 7.8671875 5.3632812 L 4.9238281 5.3632812 L 4.9238281 7.5585938 L 7.5351562 7.5585938 L 7.5351562 8.0898438 L 4.9238281 8.0898438 L 4.9238281 11.068359 L 4.3125 11.068359 L 4.3125 4.8320312 z M 10.013672 6.3085938 C 10.319672 6.3085938 10.577109 6.3533594 10.787109 6.4433594 C 11.003109 6.5273594 11.178547 6.6467344 11.310547 6.8027344 C 11.442547 6.9527344 11.537656 7.13375 11.597656 7.34375 C 11.657656 7.55375 11.6875 7.7813437 11.6875 8.0273438 L 11.6875 10.960938 C 11.6275 10.978937 11.539781 10.999438 11.425781 11.023438 C 11.311781 11.041437 11.18125 11.063891 11.03125 11.087891 C 10.88125 11.111891 10.713344 11.128625 10.527344 11.140625 C 10.347344 11.158625 10.16075 11.167969 9.96875 11.167969 C 9.72275 11.167969 9.4951563 11.141891 9.2851562 11.087891 C 9.0811562 11.033891 8.9001406 10.949938 8.7441406 10.835938 C 8.5941406 10.715937 8.4747656 10.564766 8.3847656 10.384766 C 8.3007656 10.198766 8.2578125 9.9749374 8.2578125 9.7109375 C 8.2578125 9.4589375 8.3063437 9.2425 8.4023438 9.0625 C 8.4983438 8.8825 8.6326406 8.7350938 8.8066406 8.6210938 C 8.9806406 8.5010938 9.1877344 8.413375 9.4277344 8.359375 C 9.6677344 8.305375 9.9289372 8.2792969 10.210938 8.2792969 C 10.294937 8.2792969 10.382656 8.284875 10.472656 8.296875 C 10.568656 8.302875 10.658188 8.3140313 10.742188 8.3320312 C 10.832188 8.3440313 10.906797 8.3609062 10.966797 8.3789062 C 11.032797 8.3909062 11.079516 8.4020625 11.103516 8.4140625 L 11.103516 8.1269531 C 11.103516 7.9649531 11.090406 7.8082031 11.066406 7.6582031 C 11.042406 7.5022031 10.988297 7.3641406 10.904297 7.2441406 C 10.826297 7.1181406 10.7125 7.0192656 10.5625 6.9472656 C 10.4185 6.8692656 10.226328 6.8300781 9.9863281 6.8300781 C 9.6443281 6.8300781 9.3887031 6.8543437 9.2207031 6.9023438 C 9.0527031 6.9503438 8.9315156 6.9895312 8.8535156 7.0195312 L 8.7714844 6.5058594 C 8.8734844 6.4578594 9.0302344 6.4130938 9.2402344 6.3710938 C 9.4562344 6.3290938 9.7136716 6.3085937 10.013672 6.3085938 z M 10.193359 8.7832031 C 10.049359 8.7832031 9.9001406 8.7943594 9.7441406 8.8183594 C 9.5881406 8.8363594 9.4445 8.881125 9.3125 8.953125 C 9.1805 9.019125 9.0722812 9.1124219 8.9882812 9.2324219 C 8.9042812 9.3524219 8.8613281 9.5129375 8.8613281 9.7109375 C 8.8613281 9.8849375 8.8893594 10.030391 8.9433594 10.150391 C 9.0033594 10.270391 9.0835469 10.367453 9.1855469 10.439453 C 9.2935469 10.511453 9.4204531 10.565563 9.5644531 10.601562 C 9.7144531 10.631562 9.8823591 10.646484 10.068359 10.646484 C 10.296359 10.646484 10.494109 10.640906 10.662109 10.628906 C 10.836109 10.610906 10.983516 10.588453 11.103516 10.564453 L 11.103516 8.9277344 C 11.037516 8.8977344 10.931109 8.8678906 10.787109 8.8378906 C 10.643109 8.8018906 10.445359 8.7832031 10.193359 8.7832031 z "
     id="path4" />
</svg>

<svg xmlns="http://www.w3.org/2000/svg" viewBox="0 0 16 16">
 <path d="m 1.6 0 c -0.886 0 -1.6 0.713 -1.6 1.6 l 0 12.801 c 0 0.886 0.713 1.6 1.6 1.6 l 12.801 0 c 0.886 0 1.6 -0.713 1.6 -1.6 l 0 -12.801 c 0 -0.886 -0.713 -1.6 -1.6 -1.6 l -12.801 0 z m 2.713 4.832 l 3.555 0 l 0 0.531 l -2.943 0 l 0 2.195 l 2.611 0 l 0 0.531 l -2.611 0 l 0 2.979 l -0.611 0 l 0 -6.236 z m 5.701 1.477 c 0.306 0 0.563 0.045 0.773 0.135 c 0.216 0.084 0.391 0.203 0.523 0.359 c 0.132 0.15 0.227 0.331 0.287 0.541 c 0.06 0.21 0.09 0.438 0.09 0.684 l 0 2.934 c -0.06 0.018 -0.148 0.038 -0.262 0.063 c -0.114 0.018 -0.245 0.04 -0.395 0.064 c -0.15 0.024 -0.318 0.041 -0.504 0.053 c -0.18 0.018 -0.367 0.027 -0.559 0.027 c -0.246 0 -0.474 -0.026 -0.684 -0.08 c -0.204 -0.054 -0.385 -0.138 -0.541 -0.252 c -0.15 -0.12 -0.269 -0.271 -0.359 -0.451 c -0.084 -0.186 -0.127 -0.41 -0.127 -0.674 c 0 -0.252 0.049 -0.468 0.145 -0.648 c 0.096 -0.18 0.23 -0.327 0.404 -0.441 c 0.174 -0.12 0.381 -0.208 0.621 -0.262 c 0.24 -0.054 0.501 -0.08 0.783 -0.08 c 0.084 0 0.172 0.006 0.262 0.018 c 0.096 0.006 0.186 0.017 0.27 0.035 c 0.09 0.012 0.165 0.029 0.225 0.047 c 0.066 0.012 0.113 0.023 0.137 0.035 l 0 -0.287 c 0 -0.162 -0.013 -0.319 -0.037 -0.469 c -0.024 -0.156 -0.078 -0.294 -0.162 -0.414 c -0.078 -0.126 -0.192 -0.225 -0.342 -0.297 c -0.144 -0.078 -0.336 -0.117 -0.576 -0.117 c -0.342 0 -0.598 0.024 -0.766 0.072 c -0.168 0.048 -0.289 0.087 -0.367 0.117 l -0.082 -0.514 c 0.102 -0.048 0.259 -0.093 0.469 -0.135 c 0.216 -0.042 0.473 -0.063 0.773 -0.063 z m 0.18 2.475 c -0.144 0 -0.293 0.011 -0.449 0.035 c -0.156 0.018 -0.3 0.063 -0.432 0.135 c -0.132 0.066 -0.24 0.159 -0.324 0.279 c -0.084 0.12 -0.127 0.281 -0.127 0.479 c 0 0.174 0.028 0.319 0.082 0.439 c 0.06 0.12 0.14 0.217 0.242 0.289 c 0.108 0.072 0.235 0.126 0.379 0.162 c 0.15 0.03 0.318 0.045 0.504 0.045 c 0.228 0 0.426 -0.006 0.594 -0.018 c 0.174 -0.018 0.321 -0.04 0.441 -0.064 l 0 -1.637 c -0.066 -0.03 -0.172 -0.06 -0.316 -0.09 c -0.144 -0.036 -0.342 -0.055 -0.594 -0.055 z" style="fill:#353535;fill-opacity:1"/>
</svg>
